images/icon-random-on.svg

<svg width="32" height="32" viewBox="0 0 32 32" fill="none" xmlns="http://www.w3.org/2000/svg">
<path d="M11.6 18.9333C10.6667 19.6 9.46667 20 8.26667 20H5.33333C4.53333 20 4 20.5333 4 21.3333C4 22.1333 4.53333 22.6667 5.33333 22.6667H8.26667C10 22.6667 11.7333 22.1333 13.2 21.0667C13.7333 20.6667 13.8667 19.7333 13.4667 19.2C12.9333 18.5333 12.1333 18.4 11.6 18.9333Z" fill="#3E80CE"/>
<path d="M17.3334 14.2667C17.7334 14.2667 18.1334 14.1333 18.4001 13.8667C19.3334 12.6667 20.8001 12 22.4001 12H23.4668L23.0668 12.4C22.5334 12.9333 22.5334 13.7333 23.0668 14.2667C23.3334 14.5333 23.7334 14.6667 24.0001 14.6667C24.2668 14.6667 24.6668 14.5333 24.9334 14.2667L27.6001 11.6C27.7334 11.4667 27.8668 11.3333 27.8668 11.2C28.0001 10.9333 28.0001 10.5333 27.8668 10.1333C27.7334 9.99999 27.7334 9.86666 27.6001 9.73332L24.9334 7.06666C24.4001 6.53332 23.6001 6.53332 23.0668 7.06666C22.5334 7.59999 22.5334 8.39999 23.0668 8.93332L23.4668 9.33332H22.4001C20.0001 9.33332 17.8668 10.4 16.2668 12.1333C15.7334 12.6667 15.8668 13.4667 16.4001 14C16.6668 14.2667 17.0668 14.2667 17.3334 14.2667Z" fill="#3E80CE"/>
<path d="M27.6 20.4L24.9333 17.7333C24.4 17.2 23.6 17.2 23.0667 17.7333C22.5333 18.2666 22.5333 19.0666 23.0667 19.6L23.4667 20H21.4667C19.3333 20 17.6 18.8 16.6667 16.9333L15.0667 13.7333C13.7333 11.0666 10.9333 9.33331 7.86667 9.33331H5.33333C4.53333 9.33331 4 9.86665 4 10.6666C4 11.4666 4.53333 12 5.33333 12H7.86667C10 12 11.7333 13.2 12.6667 15.0666L14.2667 18.2666C15.6 21.0666 18.4 22.8 21.4667 22.8H23.4667L23.0667 23.2C22.5333 23.7333 22.5333 24.5333 23.0667 25.0666C23.3333 25.3333 23.7333 25.4666 24 25.4666C24.2667 25.4666 24.6667 25.3333 24.9333 25.0666L27.6 22.4C28.1333 21.7333 28.1333 20.9333 27.6 20.4Z" fill="#3E80CE"/>
</svg>

<svg width="32" height="32" fill="none" xmlns="http://www.w3.org/2000/svg"><path d="M11.6 18.933A5.834 5.834 0 018.267 20H5.333C4.533 20 4 20.533 4 21.333c0 .8.533 1.334 1.333 1.334h2.934a8.38 8.38 0 004.933-1.6c.533-.4.667-1.334.267-1.867-.534-.667-1.334-.8-1.867-.267zm5.733-4.666c.4 0 .8-.134 1.067-.4.933-1.2 2.4-1.867 4-1.867h1.067l-.4.4a1.289 1.289 0 000 1.867c.266.266.666.4.933.4s.667-.134.933-.4L27.6 11.6c.133-.133.267-.267.267-.4.133-.267.133-.667 0-1.067-.134-.133-.134-.266-.267-.4l-2.667-2.666a1.289 1.289 0 00-1.866 0 1.289 1.289 0 000 1.866l.4.4H22.4c-2.4 0-4.533 1.067-6.133 2.8-.534.534-.4 1.334.133 1.867.267.267.667.267.933.267z" fill="#3E80CE"/><path d="M27.6 20.4l-2.667-2.667a1.289 1.289 0 00-1.866 0 1.289 1.289 0 000 1.867l.4.4h-2c-2.134 0-3.867-1.2-4.8-3.067l-1.6-3.2c-1.334-2.666-4.134-4.4-7.2-4.4H5.333c-.8 0-1.333.534-1.333 1.334S4.533 12 5.333 12h2.534c2.133 0 3.866 1.2 4.8 3.067l1.6 3.2a7.945 7.945 0 007.2 4.533h2l-.4.4a1.289 1.289 0 000 1.867c.266.266.666.4.933.4s.667-.134.933-.4L27.6 22.4c.533-.667.533-1.467 0-2z" fill="#3E80CE"/></svg>
